src/components/00-materials/images-raw/Accidents.svg

<svg width="96" height="96" viewBox="0 0 96 96" fill="none" xmlns="http://www.w3.org/2000/svg">
<path d="M74.41 60.78H90.84V41.76M90.84 55.97H72.99M90.84 33.11V28.3H85.65C81.81 28.3 78.74 28.66 74.37 32.68L66.87 39.48L55.3 43.48C54.353 43.6597 53.4987 44.165 52.885 44.9083C52.2714 45.6516 51.9371 46.5861 51.94 47.55V55.3" stroke="#00008F" stroke-width="2" stroke-linecap="round" stroke-linejoin="round"/>
<path d="M67.5 67.7C71.3218 67.7 74.42 64.6018 74.42 60.78C74.42 56.9582 71.3218 53.86 67.5 53.86C63.6781 53.86 60.58 56.9582 60.58 60.78C60.58 64.6018 63.6781 67.7 67.5 67.7Z" stroke="#00008F" stroke-width="2" stroke-linecap="round" stroke-linejoin="round"/>
<path d="M67.5 63.37C68.9304 63.37 70.09 62.2104 70.09 60.78C70.09 59.3496 68.9304 58.19 67.5 58.19C66.0696 58.19 64.91 59.3496 64.91 60.78C64.91 62.2104 66.0696 63.37 67.5 63.37Z" stroke="#00008F" stroke-width="2" stroke-linecap="round" stroke-linejoin="round"/>
<path d="M51.94 49.54C53.5872 49.4682 55.1395 48.7495 56.26 47.54C57.4232 46.0688 58.3016 44.3935 58.85 42.6M90.84 33.12H85.67C82.88 33.1094 80.1857 34.1358 78.11 36L71.82 41.72M71.75 41.76H90.84M85.65 46.08H87.38M47.61 33.12L47.54 39.17M54.05 35.71L50.79 39.5M41.03 35.71L44.28 39.5M21.59 60.78H5.15997V41.76M5.15997 55.97H23.01M5.15997 33.11V28.3H10.35C14.19 28.3 17.26 28.66 21.63 32.68L29.13 39.48L40.7 43.48C41.647 43.6597 42.5013 44.165 43.1149 44.9083C43.7285 45.6516 44.0629 46.5861 44.06 47.55V55.3M60.58 60.78H52.37C51.7455 60.7241 51.1646 60.4365 50.7415 59.9738C50.3184 59.5112 50.0838 58.9069 50.0838 58.28C50.0838 57.653 50.3184 57.0488 50.7415 56.5861C51.1646 56.1235 51.7455 55.8359 52.37 55.78H62.37L60.58 60.78Z" stroke="#00008F" stroke-width="2" stroke-linecap="round" stroke-linejoin="round"/>
<path d="M28.5 67.7C32.3218 67.7 35.42 64.6018 35.42 60.78C35.42 56.9582 32.3218 53.86 28.5 53.86C24.6781 53.86 21.58 56.9582 21.58 60.78C21.58 64.6018 24.6781 67.7 28.5 67.7Z" stroke="#00008F" stroke-width="2" stroke-linecap="round" stroke-linejoin="round"/>
<path d="M28.5 63.37C29.9304 63.37 31.09 62.2104 31.09 60.78C31.09 59.3496 29.9304 58.19 28.5 58.19C27.0696 58.19 25.91 59.3496 25.91 60.78C25.91 62.2104 27.0696 63.37 28.5 63.37Z" stroke="#00008F" stroke-width="2" stroke-linecap="round" stroke-linejoin="round"/>
<path d="M44.06 49.54C42.4128 49.4683 40.8604 48.7496 39.74 47.54C38.5768 46.0689 37.6984 44.3935 37.15 42.6M5.15997 33.12H10.33C13.1199 33.1094 15.8143 34.1358 17.89 36L24.18 41.72M23.88 41.76H5.15997M10.35 46.08H8.61997M35.42 60.78H43.63C44.2544 60.7241 44.8353 60.4365 45.2584 59.9739C45.6815 59.5112 45.9161 58.907 45.9161 58.28C45.9161 57.6531 45.6815 57.0488 45.2584 56.5862C44.8353 56.1235 44.2544 55.8359 43.63 55.78H33.63L35.42 60.78Z" stroke="#00008F" stroke-width="2" stroke-linecap="round" stroke-linejoin="round"/>
</svg>

<svg width="96" height="96" viewBox="0 0 96 96" fill="none" xmlns="http://www.w3.org/2000/svg"><path d="M74.41 60.78h16.43V41.76m0 14.21H72.99m17.85-22.86V28.3h-5.19c-3.84 0-6.91.36-11.28 4.38l-7.5 6.8-11.57 4a4.13 4.13 0 00-3.36 4.07v7.75" stroke="#00008F" stroke-width="2" stroke-linecap="round" stroke-linejoin="round"/><path d="M67.5 67.7a6.92 6.92 0 100-13.84 6.92 6.92 0 000 13.84z" stroke="#00008F" stroke-width="2" stroke-linecap="round" stroke-linejoin="round"/><path d="M67.5 63.37a2.59 2.59 0 100-5.18 2.59 2.59 0 000 5.18zM51.94 49.54a6.26 6.26 0 004.32-2 15.07 15.07 0 002.59-4.94m31.99-9.48h-5.17A11.25 11.25 0 0078.11 36l-6.29 5.72m-.07.04h19.09m-5.19 4.32h1.73M47.61 33.12l-.07 6.05m6.51-3.46l-3.26 3.79m-9.76-3.79l3.25 3.79M21.59 60.78H5.16V41.76m0 14.21h17.85M5.16 33.11V28.3h5.19c3.84 0 6.91.36 11.28 4.38l7.5 6.8 11.57 4a4.13 4.13 0 013.36 4.07v7.75m16.52 5.48h-8.21a2.51 2.51 0 010-5h10l-1.79 5z" stroke="#00008F" stroke-width="2" stroke-linecap="round" stroke-linejoin="round"/><path d="M28.5 67.7a6.92 6.92 0 100-13.84 6.92 6.92 0 000 13.84z" stroke="#00008F" stroke-width="2" stroke-linecap="round" stroke-linejoin="round"/><path d="M28.5 63.37a2.59 2.59 0 100-5.18 2.59 2.59 0 000 5.18zM44.06 49.54a6.26 6.26 0 01-4.32-2 15.069 15.069 0 01-2.59-4.94M5.16 33.12h5.17A11.25 11.25 0 0117.89 36l6.29 5.72m-.3.04H5.16m5.19 4.32H8.62m26.8 14.7h8.21a2.51 2.51 0 000-5h-10l1.79 5z" stroke="#00008F" stroke-width="2" stroke-linecap="round" stroke-linejoin="round"/></svg>
